aurorae/themes/PlasmaDeck/close.svg

<?xml version="1.0" encoding="UTF-8" standalone="no"?>
<svg
   width="24"
   height="24"
   version="1.1"
   id="svg5"
   sodipodi:docname="close.svg"
   inkscape:version="1.3 (0e150ed6c4, 2023-07-21)"
   xmlns:inkscape="http://www.inkscape.org/namespaces/inkscape"
   xmlns:sodipodi="http://sodipodi.sourceforge.net/DTD/sodipodi-0.dtd"
   xmlns="http://www.w3.org/2000/svg"
   xmlns:svg="http://www.w3.org/2000/svg">
  <defs
     id="defs5" />
  <sodipodi:namedview
     id="namedview5"
     pagecolor="#505050"
     bordercolor="#eeeeee"
     borderopacity="1"
     inkscape:showpageshadow="0"
     inkscape:pageopacity="0"
     inkscape:pagecheckerboard="0"
     inkscape:deskcolor="#505050"
     inkscape:zoom="24.837126"
     inkscape:cx="8.0121993"
     inkscape:cy="9.3609866"
     inkscape:window-width="1920"
     inkscape:window-height="1016"
     inkscape:window-x="0"
     inkscape:window-y="32"
     inkscape:window-maximized="1"
     inkscape:current-layer="active-center" />
  <g
     id="pressed-center"
     transform="matrix(1.0909091,0,0,1.0909091,-2.1818182,0)">
    <rect
       style="opacity:0.001"
       width="22"
       height="22"
       x="46"
       y="0"
       id="rect1" />
    <path
       style="fill:#d94126"
       transform="matrix(0.91666666,0,0,0.91666666,2,0)"
       d="M 60 2 A 10 10 0 0 0 50 12 A 10 10 0 0 0 60 22 A 10 10 0 0 0 70 12 A 10 10 0 0 0 60 2 z M 56.003906 8 L 57.001953 8 C 57.012317 7.99988 57.022741 7.99954 57.033203 8 C 57.288053 8.0112004 57.543143 8.1285854 57.720703 8.3125 L 60.001953 10.59375 L 62.3125 8.3125 C 62.57802 8.0820067 62.759267 8.0069997 63 8 L 64 8 L 64 9 C 64 9.2864617 63.96557 9.5506559 63.75 9.75 L 61.470703 12.03125 L 63.71875 14.28125 C 63.906864 14.469414 63.999992 14.734707 64 15 L 64 16 L 63 16 C 62.734802 15.99999 62.46934 15.906893 62.28125 15.71875 L 60.001953 13.4375 L 57.720703 15.71875 C 57.532613 15.906934 57.267139 16 57.001953 16 L 56.003906 16 L 56.003906 15 C 56.003904 14.734717 56.097039 14.469414 56.285156 14.28125 L 58.564453 12.03125 L 56.285156 9.75 C 56.074497 9.5553757 55.982005 9.2807419 56.003906 9 L 56.003906 8 z"
       id="path1" />
  </g>
  <g
     id="inactive-center"
     transform="matrix(1.0909091,0,0,1.0909091,-3.2727273,0)"
     style="fill:#ff0000">
    <rect
       style="opacity:0.001;fill:#ff0000"
       width="22"
       height="22"
       x="69"
       y="0"
       id="rect2" />
    <path
       style="opacity:0.3;fill:#ff0000"
       d="m 76.336214,7.3335477 h 0.916307 c 0.0095,-1.1e-4 0.01905,-4.217e-4 0.02864,0 0.233614,0.010267 0.467198,0.1178615 0.629961,0.2864499 l 2.090325,2.091085 2.118958,-2.091085 c 0.243394,-0.2112855 0.409288,-0.2800335 0.62996,-0.2864499 h 0.916304 v 0.9166398 c 0,0.2625899 -0.03147,0.5047479 -0.229076,0.68748 l -2.090325,2.0910845 2.06169,2.062441 c 0.172438,0.172484 0.257704,0.41565 0.257711,0.658835 v 0.916639 h -0.916311 c -0.243096,-9e-6 -0.486178,-0.08534 -0.658594,-0.257804 l -2.090324,-2.091086 -2.090325,2.091086 c -0.172415,0.172502 -0.415508,0.257804 -0.658594,0.257804 h -0.916307 v -0.916639 c -3e-6,-0.243176 0.08527,-0.486351 0.257711,-0.658835 L 78.68425,11.028752 76.593925,8.9376675 C 76.400821,8.7592619 76.316137,8.5075342 76.336214,8.2501875 Z"
       id="path2" />
  </g>
  <g
     id="deactivated-center"
     transform="matrix(1.0909091,0,0,1.0909091,-4.3636364,0)"
     style="fill:#ff0000">
    <rect
       style="opacity:0.001;fill:#ff0000"
       width="22"
       height="22"
       x="92"
       y="0"
       id="rect3" />
    <path
       style="opacity:0.3;fill:#ff0000"
       d="m 99.336216,7.3335477 h 0.916304 c 0.01,-1.1e-4 0.0191,-4.217e-4 0.0286,0 0.23361,0.010267 0.4672,0.1178615 0.62996,0.2864499 l 2.09032,2.091085 2.11896,-2.091085 c 0.24339,-0.2112855 0.40929,-0.2800335 0.62996,-0.2864499 h 0.91635 v 0.9166398 c 0,0.2625899 -0.0314,0.5047479 -0.22908,0.68748 l -2.09032,2.0910845 2.06168,2.062441 c 0.17244,0.172484 0.25771,0.41565 0.25772,0.658835 v 0.916639 h -0.91631 c -0.24309,-9e-6 -0.48618,-0.08534 -0.65859,-0.257804 l -2.09033,-2.091086 -2.09032,2.091086 c -0.17242,0.172502 -0.41551,0.257804 -0.6586,0.257804 h -0.916304 v -0.916639 c -3e-6,-0.243176 0.08527,-0.486351 0.257711,-0.658835 L 101.68425,11.028752 99.593927,8.9376675 C 99.400823,8.7592619 99.316139,8.5075342 99.336216,8.2501875 Z"
       id="path3" />
  </g>
  <g
     id="hover-center"
     transform="matrix(1.0909091,0,0,1.0909091,-1.0909091,0)">
    <rect
       style="opacity:0.001"
       width="22"
       height="22"
       x="23"
       y="0"
       id="rect4" />
    <path
       style="fill:#d94126"
       transform="matrix(0.91666666,0,0,0.91666666,1,0)"
       d="M 36 2 A 10 10 0 0 0 26 12 A 10 10 0 0 0 36 22 A 10 10 0 0 0 46 12 A 10 10 0 0 0 36 2 z M 32.003906 8 L 33.001953 8 C 33.012317 7.99988 33.022741 7.99954 33.033203 8 C 33.288054 8.0112004 33.543142 8.1285854 33.720703 8.3125 L 36.001953 10.59375 L 38.3125 8.3125 C 38.57802 8.0820067 38.759267 8.0069997 39 8 L 40 8 L 40 9 C 40 9.2864617 39.965569 9.5506559 39.75 9.75 L 37.470703 12.03125 L 39.71875 14.28125 C 39.906864 14.469414 39.999992 14.734707 40 15 L 40 16 L 39 16 C 38.734804 15.99999 38.46934 15.906893 38.28125 15.71875 L 36.001953 13.4375 L 33.720703 15.71875 C 33.532613 15.906934 33.267138 16 33.001953 16 L 32.003906 16 L 32.003906 15 C 32.003903 14.734717 32.09704 14.469414 32.285156 14.28125 L 34.564453 12.03125 L 32.285156 9.75 C 32.074497 9.5553757 31.982004 9.2807419 32.003906 9 L 32.003906 8 z"
       id="path4" />
  </g>
  <g
     id="active-center"
     transform="matrix(1.0909091,0,0,1.0909091,-25.090909,0)">
    <rect
       style="display:inline;opacity:0.00100002"
       width="22"
       height="22"
       x="23"
       y="0"
       id="rect5" />
    <rect
       style="fill:#d40000;fill-opacity:1;stroke-width:17.0233;stroke-opacity:0.83427;paint-order:markers stroke fill"
       id="rect10"
       width="7.6512985"
       height="7.5421124"
       x="30.174351"
       y="7.2289438" />
    <path
       style="display:inline;fill:#0e131a;fill-opacity:1"
       d="M 12,2 A 10,10 0 0 0 2,12 10,10 0 0 0 12,22 10,10 0 0 0 22,12 10,10 0 0 0 12,2 Z M 8.0039062,8 h 0.9980469 c 0.010364,-1.2e-4 0.020788,-4.6e-4 0.03125,0 0.2548506,0.0112 0.5099393,0.1285854 0.6875,0.3125 L 12.001953,10.59375 14.3125,8.3125 C 14.57802,8.0820067 14.759267,8.0069997 15,8 h 1 v 1 c 0,0.2864617 -0.03443,0.5506559 -0.25,0.75 l -2.279297,2.28125 2.248047,2.25 C 15.906864,14.469414 15.999992,14.734707 16,15 v 1 h -1 c -0.265196,-10e-6 -0.53066,-0.09311 -0.71875,-0.28125 L 12.001953,13.4375 9.7207031,15.71875 C 9.5326129,15.906934 9.2671379,16 9.0019531,16 H 8.0039062 v -1 c -3.2e-6,-0.265283 0.093134,-0.530586 0.28125,-0.71875 l 2.2792968,-2.25 L 8.2851562,9.75 C 8.0744973,9.5553757 7.9820041,9.2807419 8.0039062,9 Z"
       id="path5"
       transform="matrix(0.91666666,0,0,0.91666666,23,0)" />
  </g>
</svg>

<svg xmlns="http://www.w3.org/2000/svg" width="24" height="24" version="1.1">
 <g id="pressed-center" transform="matrix(1.0909091,0,0,1.0909091,-2.1818182,0)">
  <rect style="opacity:0.001" width="22" height="22" x="46" y="0"/>
  <path style="fill:#d94126" transform="matrix(0.91666666,0,0,0.91666666,2,0)" d="M 60 2 A 10 10 0 0 0 50 12 A 10 10 0 0 0 60 22 A 10 10 0 0 0 70 12 A 10 10 0 0 0 60 2 z M 56.003906 8 L 57.001953 8 C 57.012317 7.99988 57.022741 7.99954 57.033203 8 C 57.288053 8.0112004 57.543143 8.1285854 57.720703 8.3125 L 60.001953 10.59375 L 62.3125 8.3125 C 62.57802 8.0820067 62.759267 8.0069997 63 8 L 64 8 L 64 9 C 64 9.2864617 63.96557 9.5506559 63.75 9.75 L 61.470703 12.03125 L 63.71875 14.28125 C 63.906864 14.469414 63.999992 14.734707 64 15 L 64 16 L 63 16 C 62.734802 15.99999 62.46934 15.906893 62.28125 15.71875 L 60.001953 13.4375 L 57.720703 15.71875 C 57.532613 15.906934 57.267139 16 57.001953 16 L 56.003906 16 L 56.003906 15 C 56.003904 14.734717 56.097039 14.469414 56.285156 14.28125 L 58.564453 12.03125 L 56.285156 9.75 C 56.074497 9.5553757 55.982005 9.2807419 56.003906 9 L 56.003906 8 z"/>
 </g>
 <g id="inactive-center" transform="matrix(1.0909091,0,0,1.0909091,-3.2727273,0)">
  <rect style="opacity:0.001" width="22" height="22" x="69" y="0"/>
  <path style="opacity:0.3;fill:#fefefe" d="m 76.336214,7.3335477 h 0.916307 c 0.0095,-1.1e-4 0.01905,-4.217e-4 0.02864,0 0.233614,0.010267 0.467198,0.1178615 0.629961,0.2864499 l 2.090325,2.091085 2.118958,-2.091085 c 0.243394,-0.2112855 0.409288,-0.2800335 0.62996,-0.2864499 h 0.916304 v 0.9166398 c 0,0.2625899 -0.03147,0.5047479 -0.229076,0.68748 l -2.090325,2.0910845 2.06169,2.062441 c 0.172438,0.172484 0.257704,0.41565 0.257711,0.658835 v 0.916639 h -0.916311 c -0.243096,-9e-6 -0.486178,-0.08534 -0.658594,-0.257804 l -2.090324,-2.091086 -2.090325,2.091086 c -0.172415,0.172502 -0.415508,0.257804 -0.658594,0.257804 h -0.916307 v -0.916639 c -3e-6,-0.243176 0.08527,-0.486351 0.257711,-0.658835 L 78.68425,11.028752 76.593925,8.9376675 C 76.400821,8.7592619 76.316137,8.5075342 76.336214,8.2501875 Z"/>
 </g>
 <g id="deactivated-center" transform="matrix(1.0909091,0,0,1.0909091,-4.3636364,0)">
  <rect style="opacity:0.001" width="22" height="22" x="92" y="0"/>
  <path style="opacity:0.3;fill:#fefefe" d="m 99.336216,7.3335477 h 0.916304 c 0.01,-1.1e-4 0.0191,-4.217e-4 0.0286,0 0.23361,0.010267 0.4672,0.1178615 0.62996,0.2864499 l 2.09032,2.091085 2.11896,-2.091085 c 0.24339,-0.2112855 0.40929,-0.2800335 0.62996,-0.2864499 h 0.91635 v 0.9166398 c 0,0.2625899 -0.0314,0.5047479 -0.22908,0.68748 l -2.09032,2.0910845 2.06168,2.062441 c 0.17244,0.172484 0.25771,0.41565 0.25772,0.658835 v 0.916639 h -0.91631 c -0.24309,-9e-6 -0.48618,-0.08534 -0.65859,-0.257804 l -2.09033,-2.091086 -2.09032,2.091086 c -0.17242,0.172502 -0.41551,0.257804 -0.6586,0.257804 h -0.916304 v -0.916639 c -3e-6,-0.243176 0.08527,-0.486351 0.257711,-0.658835 L 101.68425,11.028752 99.593927,8.9376675 C 99.400823,8.7592619 99.316139,8.5075342 99.336216,8.2501875 Z"/>
 </g>
 <g id="hover-center" transform="matrix(1.0909091,0,0,1.0909091,-1.0909091,0)">
  <rect style="opacity:0.001" width="22" height="22" x="23" y="0"/>
  <path style="fill:#d94126" transform="matrix(0.91666666,0,0,0.91666666,1,0)" d="M 36 2 A 10 10 0 0 0 26 12 A 10 10 0 0 0 36 22 A 10 10 0 0 0 46 12 A 10 10 0 0 0 36 2 z M 32.003906 8 L 33.001953 8 C 33.012317 7.99988 33.022741 7.99954 33.033203 8 C 33.288054 8.0112004 33.543142 8.1285854 33.720703 8.3125 L 36.001953 10.59375 L 38.3125 8.3125 C 38.57802 8.0820067 38.759267 8.0069997 39 8 L 40 8 L 40 9 C 40 9.2864617 39.965569 9.5506559 39.75 9.75 L 37.470703 12.03125 L 39.71875 14.28125 C 39.906864 14.469414 39.999992 14.734707 40 15 L 40 16 L 39 16 C 38.734804 15.99999 38.46934 15.906893 38.28125 15.71875 L 36.001953 13.4375 L 33.720703 15.71875 C 33.532613 15.906934 33.267138 16 33.001953 16 L 32.003906 16 L 32.003906 15 C 32.003903 14.734717 32.09704 14.469414 32.285156 14.28125 L 34.564453 12.03125 L 32.285156 9.75 C 32.074497 9.5553757 31.982004 9.2807419 32.003906 9 L 32.003906 8 z"/>
 </g>
 <g id="active-center" transform="matrix(1.0909091,0,0,1.0909091,-25.090909,0)">
  <rect style="opacity:0.00100002" width="22" height="22" x="23" y="0"/>
  <path style="fill:#fefefe" transform="matrix(0.91666666,0,0,0.91666666,23,0)" d="M 12 2 A 10 10 0 0 0 2 12 A 10 10 0 0 0 12 22 A 10 10 0 0 0 22 12 A 10 10 0 0 0 12 2 z M 8.0039062 8 L 9.0019531 8 C 9.0123168 7.99988 9.0227413 7.99954 9.0332031 8 C 9.2880537 8.0112004 9.5431424 8.1285854 9.7207031 8.3125 L 12.001953 10.59375 L 14.3125 8.3125 C 14.57802 8.0820067 14.759267 8.0069997 15 8 L 16 8 L 16 9 C 16 9.2864617 15.965569 9.5506559 15.75 9.75 L 13.470703 12.03125 L 15.71875 14.28125 C 15.906864 14.469414 15.999992 14.734707 16 15 L 16 16 L 15 16 C 14.734804 15.99999 14.46934 15.906893 14.28125 15.71875 L 12.001953 13.4375 L 9.7207031 15.71875 C 9.5326129 15.906934 9.2671379 16 9.0019531 16 L 8.0039062 16 L 8.0039062 15 C 8.003903 14.734717 8.0970399 14.469414 8.2851562 14.28125 L 10.564453 12.03125 L 8.2851562 9.75 C 8.0744973 9.5553757 7.9820041 9.2807419 8.0039062 9 L 8.0039062 8 z"/>
 </g>
</svg>
